X:1
T:6 Lieder, Op.10
T:Im Frühling
T:4. Im Frühling
T:Josephine Lang
T:Wilhelm Wackernagel
T:6 Lieder, Op.10
T:Creative Commons copyright waiver (CC0 1.0 Universal)
T:Creative Commons copyright waiver (CC0 1.0 Universal)
T:Creative Commons copyright waiver (CC0 1.0 Universal)
T:Creative Commons copyright waiver (CC0 1.0 Universal)
C:Josephine Lang
Z:Wilhelm Wackernagel
Z:Creative Commons copyright waiver (CC0 1.0 Universal)
L:1/8
Q:1/4=160
M:4/4
K:Db
V:1 treble nm="Singstimme\nVoice"
V:1
"^Allegro vivace" z8 | z8 | z8 | z8 | z8 | z4 z2 z A | (A2 F) D d3 B | (A3 E) A2 z2 | %8
w: |||||So|sin- * get und so|sprin- * get,|
 A2 C3/2 D/ E2 B,2 | C z c2 A2 z A | A2 F D d3 B | (A3 E) A2 z2 | B2 A G F2 E2 | F4 f4- | %14
w: ihr klei- nen, klei- nen|Wald- vög- lein! Ihr|habt eu- er Lieb' ge-|fun- * den,|ihr mögt wohl fröh- lich|sein, ihr|
 fe d F A3 C | D8 | z8 | z8 | z8 | z8 ||[K:Ab][Q:1/4=116]"^Etwas langsamer" c2 B3/2 B/ A2 G2 | %21
w: _ _ mögt wohl fröh- lich|sein.|||||Ein- sam in mei- ner|
 F4 E2 d2- | dc B A G2 A2 | B3 F G2 z z | z8 | z8 | z8 | z8 | z8 | z8 | z8 | z8 | z8 | z8 | z8 | %35
w: Kam- mer halt|* * ich wohl stil- le,|stil- le Wacht,||||||||||||
 z8 | z8 | z8 | e2 c d e2 c2 | d4 z2 z B | f2"^stringendo e cresc." d c B2 z =A | c4 B2 z2 | z8 | %43
w: |||die ich nicht bre- chen|mag, was|sol- len mir all' die|Blu- men,||
 z8 | z8 | z8 | z8 | z8 | z8 | z8 | z8 ||[K:Db] z8 | z8 | z8 | z8 | z8 | z8 | (!>!A3 E) A2 z2 | %58
w: ||||||||||||||ger- * ne|
 A2 C3/2 D/ E3 B, | C2!f! c2 A4 | z8 | z8 | z8 | z8 | z8 | z8 | z8 | z8 | z8 | z8 | z8 | z8 | z8 | %73
w: ich wei- ne, wei- ne|nach der Lust.||||||||||||||
 z8 | z8 | z8 | z8 |] %77
w: ||||

